img/icons/media/volume-low.svg

<svg xmlns="http://www.w3.org/2000/svg" viewBox="0 0 32 34"><g data-name="Layer 2"><g data-name="Photo / Audio / Video"><path d="M0 11v12h8.64L22 34V0L8.64 11zm20-6.74v25.46L9.36 21H2v-8h7.36zm8.58 1.54l-1.65 1.12a18 18 0 01.11 20L28.71 28a20 20 0 00-.13-22.2z" fill="#231f20" data-name="Volume - Low"/></g></g></svg>

<svg xmlns="http://www.w3.org/2000/svg" viewBox="0 0 32 34"><defs><style>.cls-1{fill:#231f20;}</style></defs><title>Volume - Low</title><g id="Layer_2" data-name="Layer 2"><g id="Icons"><g id="Photo_Audio_Video" data-name="Photo / Audio / Video"><g id="Volume_-_Low" data-name="Volume - Low"><path class="cls-1" d="M0,11V23H8.64L22,34V0L8.64,11ZM20,4.26V29.72L9.36,21H2V13H9.36Z"/><path class="cls-1" d="M28.58,5.8,26.93,6.92a18,18,0,0,1,.11,20L28.71,28A20,20,0,0,0,28.58,5.8Z"/></g></g></g></g></svg>
